X:16884
T:The Irish Washerwoman
M:6/8
L:1/8
Q:180
C:Trad
R:jig
K:G
dc|BGG DGG|BGB dcB|cAA EAA|cAc edc|!
BGG DGG|BGB dcB|cBc Adc|BGG G2:|!
g|gdg gdg|gdg bag|fdf fdf|fdf agf|!
egg dgg|cgg B3|cBc Adc|BGG G2:||!
